X:1
T:Eppie Morrie
M:4/4
L:1/4
K:G
 E B B B| G E E G| F D D F| A3B/2-A/2| G E/2E/2 F D| E- D B, B,/2B,/2|\
 E E F D| E D B, B,| E E F D| E4|
